X:1
T:The snow it melts the soonest
M:4/4
L:1/8
K:Edor
F | E2 B2 B3 c | d2 B4 BA | G2 E2 E3 D | E6 EF |
G2 B2 B3 c | d4 e2 d2 | c2 A2 A3 B | A6 EF |
G2 B2 B3 c | d2 d4 ed | c2 A2 A3 c | d6 d=c |
B2 E2 G3 A | B2 d2 =c2 BA | B2 E2 E3 D | E8 ||
